src/lib/packages/icons/src/assets/filled/file-lock.svg

<svg width="24" height="24" viewBox="0 0 24 24" fill="none" xmlns="http://www.w3.org/2000/svg">
<path d="M13.25 12.5V13.6H11.75V12.5C11.75 12.086 12.087 11.75 12.5 11.75C12.913 11.75 13.25 12.086 13.25 12.5ZM17 8.25H19.25L14.75 3.75V6C14.75 7.58 15.42 8.25 17 8.25ZM20 9.75V18C20 20 19 21 17 21H8C6 21 5 20 5 18V6C5 4 6 3 8 3H13.25V6C13.25 8.42 14.58 9.75 17 9.75H20ZM15.5 14.95C15.5 14.28 15.249 13.861 14.75 13.69V12.5C14.75 11.259 13.74 10.25 12.5 10.25C11.26 10.25 10.25 11.259 10.25 12.5V13.69C9.751 13.861 9.5 14.28 9.5 14.95V17.05C9.5 17.95 9.9501 18.4 10.8501 18.4H14.1499C15.0499 18.4 15.5 17.95 15.5 17.05V14.95Z" fill="currentColor"/>
</svg>

<svg xmlns="http://www.w3.org/2000/svg" width="24" height="24" fill="none"><path fill="currentColor" d="M13.25 12.5v1.1h-1.5v-1.1a.75.75 0 0 1 1.5 0ZM17 8.25h2.25l-4.5-4.5V6c0 1.58.67 2.25 2.25 2.25Zm3 1.5V18c0 2-1 3-3 3H8c-2 0-3-1-3-3V6c0-2 1-3 3-3h5.25v3c0 2.42 1.33 3.75 3.75 3.75h3Zm-4.5 5.2c0-.67-.251-1.089-.75-1.26V12.5c0-1.241-1.01-2.25-2.25-2.25a2.253 2.253 0 0 0-2.25 2.25v1.19c-.499.171-.75.59-.75 1.26v2.1c0 .9.45 1.35 1.35 1.35h3.3c.9 0 1.35-.45 1.35-1.35v-2.1Z"/></svg>
